!!!OTL: White Christmas
!!!COM: Berlin, Irving
!!!ODT: 1940
!!!YOR: HL00005256 (Hal Leonard sheet music)
!!!AST: Christmas song
!!!YEC: Brian Luke, 2001
**kern	**harm
*k[]	*k[]
*M4/4	*M4/4
*C:	*C:
*>A	*>A
=1	=1
1e	I
=2	=2
4f	.
4e	.
4d#	.
4e	.
=3	=3
1f	ii7
=4	=4
4f#	V7
2.g	.
=5	=5
2a	IV
4b	.
4cc	.
=6	=6
4dd	.
4cc	.
4b	V7
4a	.
=7	=7
[1g	I
=8	=8
2g]	.
4c	V7
4d	.
=9	=9
2e	I
2e	.
=10	=10
4e	V7/IV
2a	.
4g	.
=11	=11
2c	IV
2c	.
=12	=12
4c	iv
2g	.
4f	.
=13	=13
1e	Ic
=14	=14
4f	.
4e	.
4d	V7/V
4c	.
=15	=15
[1d	ii7
=16	=16
1d]	V7;
*>A'	*>A'
=17	=17
1e	I
=18	=18
4f	.
4e	.
4d#	.
4e	.
=19	=19
1f	ii7
=20	=20
4f#	V7
2.g	.
=21	=21
2a	IV
4b	.
4cc	.
=22	=22
4dd	.
4cc	.
4b	V7
4a	.
=23	=23
[1g	I
=24	=24
2g]	.
4c	V7
4d	.
=25	=25
2e	I
2e	.
=26	=26
4e	V7/IV
2a	.
4g	.
=27	=27
[1cc	IV
=28	=28
2cc]	iv
4c	.
4d	.
=29	=29
2e	Ic
2e	.
=30	=30
4.a	V7
8B	.
4B	.
4B	.
=31	=31
[1c	I;
=32	=32
2.c]	.
4r	.
*-	*-
